src/food-drink/food-vegetable/1F951.svg

<svg id="emoji" viewBox="0 0 72 72" xmlns="http://www.w3.org/2000/svg">
  <g id="grid">
    <path fill="#b3b3b3" d="M68,4V68H4V4H68m4-4H0V72H72V0Z"/>
    <path fill="none" stroke="#00a5ff" stroke-miterlimit="10" stroke-width="0.1" d="M12.923,10.9583H59.0769A1.9231,1.9231,0,0,1,61,12.8814V59.0352a1.9231,1.9231,0,0,1-1.9231,1.9231H12.9231A1.9231,1.9231,0,0,1,11,59.0352V12.8813A1.923,1.923,0,0,1,12.923,10.9583Z"/>
    <rect x="16" y="4" rx="2.2537" width="40" height="64" fill="none" stroke="#00a5ff" stroke-miterlimit="10" stroke-width="0.1"/>
    <rect x="16" y="4" rx="2.2537" width="40" height="64" transform="translate(72) rotate(90)" fill="none" stroke="#00a5ff" stroke-miterlimit="10" stroke-width="0.1"/>
    <circle cx="36" cy="36" r="29" fill="none" stroke="#00a5ff" stroke-miterlimit="10" stroke-width="0.1"/>
  </g>
  <g id="color">
    <path fill="#B1CC33" stroke="none" stroke-miterlimit="10" stroke-width="2" d="M52.75,44.6037 c0,9.0482-7.3378,16.3754-16.3754,16.3754c-9.0482,0-16.3754-7.3272-16.3754-16.3754c0-0.2534,0.0106-0.4962,0.0211-0.7496 c0.095-2.2911,0.6757-4.4661,1.6259-6.4193c0.6335-1.5731,1.3831-3.1674,2.1432-4.7722c2.0377-4.3182,4.1388-8.6892,4.1388-13.0391 c0-4.6667,3.7797-8.4464,8.4464-8.4464c4.656,0,8.4464,3.7797,8.4464,8.4464c0,4.3499,2.101,8.7209,4.1387,13.0391 c0.7601,1.6048,1.5098,3.1991,2.1433,4.7722c0.8552,2.1644,1.4992,4.3077,1.6259,6.4193 C52.7394,44.1075,52.75,44.3503,52.75,44.6037z"/>
    <circle cx="36.3746" cy="44.5271" r="8.4489" fill="#A57939" stroke="#A57939" stroke-linecap="round" stroke-linejoin="round" stroke-miterlimit="10" stroke-width="2"/>
    <path fill="#6A462F" stroke="none" d="M44.8203,44.5224c0,4.6694-3.7764,8.4551-8.4458,8.4551c0,0,9.6829-7.2273,0-16.901 C41.0439,36.0766,44.8203,39.8623,44.8203,44.5224z"/>
  </g>
  <g id="hair"/>
  <g id="skin"/>
  <g id="skin-shadow"/>
  <g id="line">
    <path fill="none" stroke="#000000" stroke-miterlimit="10" stroke-width="2" d="M52.75,44.6037 c0,9.0482-7.3378,16.3754-16.3754,16.3754c-9.0482,0-16.3754-7.3272-16.3754-16.3754c0-0.2534,0.0106-0.4962,0.0211-0.7496 c0.095-2.2911,0.6757-4.4661,1.6259-6.4193c0.6335-1.5731,1.3831-3.1674,2.1432-4.7722c2.0377-4.3182,4.1388-8.6892,4.1388-13.0391 c0-4.6667,3.7797-8.4464,8.4464-8.4464c4.656,0,8.4464,3.7797,8.4464,8.4464c0,4.3499,2.101,8.7209,4.1387,13.0391 c0.7601,1.6048,1.5098,3.1991,2.1433,4.7722c0.8552,2.1644,1.4992,4.3077,1.6259,6.4193 C52.7394,44.1075,52.75,44.3503,52.75,44.6037z"/>
    <circle cx="36.3746" cy="44.5271" r="8.4489" fill="none" stroke="#000000" stroke-linecap="round" stroke-linejoin="round" stroke-miterlimit="10" stroke-width="2"/>
  </g>
</svg>

<svg viewBox="0 0 72 72" xmlns="http://www.w3.org/2000/svg"><path fill="#b3b3b3" d="M68 4v64H4V4h64m4-4H0v72h72V0z"/><path fill="none" stroke="#00a5ff" stroke-miterlimit="10" stroke-width=".1" d="M12.923 10.958h46.154A1.923 1.923 0 0161 12.881v46.154a1.923 1.923 0 01-1.923 1.923H12.923A1.923 1.923 0 0111 59.035V12.881a1.923 1.923 0 011.923-1.923z"/><rect x="16" y="4" rx="2.254" width="40" height="64" fill="none" stroke="#00a5ff" stroke-miterlimit="10" stroke-width=".1"/><rect x="16" y="4" rx="2.254" width="40" height="64" transform="rotate(90 36 36)" fill="none" stroke="#00a5ff" stroke-miterlimit="10" stroke-width=".1"/><circle cx="36" cy="36" r="29" fill="none" stroke="#00a5ff" stroke-miterlimit="10" stroke-width=".1"/><g stroke-linecap="round" stroke-miterlimit="10" stroke-width="6" stroke="#fff" fill="none" stroke-linejoin="round"><path d="M52.75 44.604c0 9.048-7.338 16.375-16.375 16.375-9.049 0-16.376-7.327-16.376-16.375 0-.254.01-.496.021-.75a16.196 16.196 0 011.626-6.42c.634-1.572 1.383-3.167 2.143-4.771 2.038-4.319 4.14-8.69 4.14-13.04a8.444 8.444 0 018.446-8.446c4.656 0 8.446 3.78 8.446 8.447 0 4.35 2.101 8.72 4.139 13.039.76 1.604 1.51 3.199 2.143 4.772.855 2.164 1.5 4.308 1.626 6.42.01.253.021.495.021.749z"/><circle cx="36.375" cy="44.527" r="8.449"/></g><path fill="#B1CC33" d="M52.75 44.604c0 9.048-7.338 16.375-16.375 16.375-9.049 0-16.376-7.327-16.376-16.375 0-.254.01-.496.021-.75a16.196 16.196 0 011.626-6.42c.634-1.572 1.383-3.167 2.143-4.771 2.038-4.319 4.14-8.69 4.14-13.04a8.444 8.444 0 018.446-8.446c4.656 0 8.446 3.78 8.446 8.447 0 4.35 2.101 8.72 4.139 13.039.76 1.604 1.51 3.199 2.143 4.772.855 2.164 1.5 4.308 1.626 6.42.01.253.021.495.021.749z"/><circle cx="36.375" cy="44.527" r="8.449" fill="#A57939" stroke="#A57939" stroke-linecap="round" stroke-linejoin="round" stroke-miterlimit="10" stroke-width="2"/><path fill="#6A462F" d="M44.82 44.522c0 4.67-3.776 8.455-8.445 8.455 0 0 9.682-7.227 0-16.9a8.446 8.446 0 018.445 8.445z"/><g fill="none" stroke="#000" stroke-miterlimit="10" stroke-width="2"><path d="M52.75 44.604c0 9.048-7.338 16.375-16.375 16.375-9.049 0-16.376-7.327-16.376-16.375 0-.254.01-.496.021-.75a16.196 16.196 0 011.626-6.42c.634-1.572 1.383-3.167 2.143-4.771 2.038-4.319 4.14-8.69 4.14-13.04a8.444 8.444 0 018.446-8.446c4.656 0 8.446 3.78 8.446 8.447 0 4.35 2.101 8.72 4.139 13.039.76 1.604 1.51 3.199 2.143 4.772.855 2.164 1.5 4.308 1.626 6.42.01.253.021.495.021.749z"/><circle cx="36.375" cy="44.527" r="8.449" stroke-linecap="round" stroke-linejoin="round"/></g></svg>
